Origami/24x24/apps/securecrt.svg

<svg xmlns="http://www.w3.org/2000/svg" width="24" height="24" version="1">
 <path style="opacity:.2" d="m2 20v0.5c0 0.554 0.446 1 1 1h18c0.554 0 1-0.446 1-1v-0.5c0 0.554-0.446 1-1 1h-18c-0.554 0-1-0.446-1-1z"/>
 <rect style="fill:#4f4f4f" width="20" height="18" x="2" y="3" rx="1" ry="1"/>
 <path style="opacity:.1;fill:#ffffff" d="m3 3c-0.554 0-1 0.446-1 1v0.5c0-0.554 0.446-1 1-1h18c0.554 0 1 0.446 1 1v-0.5c0-0.554-0.446-1-1-1z"/>
 <path style="opacity:.2" d="m6 5.5v1h-0.5c-0.831 0-1.5 0.669-1.5 1.5s0.669 1.5 1.5 1.5h0.5v1h-1.9082c0.206 0.582 0.754 1 1.4082 1h0.5v1h1v-1h0.5c0.831 0 1.5-0.669 1.5-1.5s-0.669-1.5-1.5-1.5h-0.5v-1h1.9082c-0.206-0.582-0.754-1-1.408-1h-0.5v-1h-1zm-0.5 2h0.5v1h-0.5c-0.277 0-0.5-0.223-0.5-0.5s0.223-0.5 0.5-0.5zm1.5 2h0.5c0.277 0 0.5 0.223 0.5 0.5s-0.2233 0.513-0.5 0.5h-0.5zm4 2v1h6v-1z"/>
 <path style="fill:#ffffff" d="m6 5v1h-0.5c-0.831 0-1.5 0.669-1.5 1.5s0.669 1.5 1.5 1.5h0.5v1h-1.9082c0.206 0.582 0.754 1 1.4082 1h0.5v1h1v-1h0.5c0.831 0 1.5-0.669 1.5-1.5s-0.669-1.5-1.5-1.5h-0.5v-1h1.9082c-0.206-0.582-0.754-1-1.408-1h-0.5v-1h-1zm-0.5 2h0.5v1h-0.5c-0.277 0-0.5-0.223-0.5-0.5s0.223-0.5 0.5-0.5zm1.5 2h0.5c0.277 0 0.5 0.223 0.5 0.5s-0.2233 0.513-0.5 0.5h-0.5zm4 2v1h6v-1z"/>
 <circle style="fill:#bb46da" cx="17" cy="17" r="6"/>
 <path style="fill:#ffffff" d="m 14,14 h 0.5 c 3.0376,0 5.5,2.4624 5.5,5.5 V 20 H 19.5 C 19.227,20 19,19.775 19,19.5 19,17.015 16.985,15 14.5,15 14.227,15 14,14.775 14,14.5 Z"/>
 <path style="fill:#ffffff" d="m 14,16 h 0.5 c 1.933,0 3.5,1.567 3.5,3.5 V 20 H 17.5 C 17.227,20 17,19.775 17,19.5 17,18.119 15.881,17 14.5,17 14.227,17 14,16.775 14,16.5 Z"/>
 <path style="fill:#ffffff" d="m 15,18 c 0.5523,0 1,0.44772 1,1 0,0.55228 -0.44772,1 -1,1 -0.55228,0 -1,-0.44772 -1,-1 0,-0.55228 0.44772,-1 1,-1 z"/>
</svg>

<svg width="24" height="24" version="1" xmlns="http://www.w3.org/2000/svg">
 <path d="m2 20v0.5c0 0.554 0.446 1 1 1h18c0.554 0 1-0.446 1-1v-0.5c0 0.554-0.446 1-1 1h-18c-0.554 0-1-0.446-1-1z" style="opacity:.2"/>
 <rect x="2" y="3" width="20" height="18" rx="1" ry="1" style="fill:#4f4f4f"/>
 <path d="m3 3c-0.554 0-1 0.446-1 1v0.5c0-0.554 0.446-1 1-1h18c0.554 0 1 0.446 1 1v-0.5c0-0.554-0.446-1-1-1z" style="fill:#ffffff;opacity:.1"/>
 <path d="m6 5.5v1h-0.5c-0.831 0-1.5 0.669-1.5 1.5s0.669 1.5 1.5 1.5h0.5v1h-1.9082c0.206 0.582 0.754 1 1.4082 1h0.5v1h1v-1h0.5c0.831 0 1.5-0.669 1.5-1.5s-0.669-1.5-1.5-1.5h-0.5v-1h1.9082c-0.206-0.582-0.754-1-1.408-1h-0.5v-1h-1zm-0.5 2h0.5v1h-0.5c-0.277 0-0.5-0.223-0.5-0.5s0.223-0.5 0.5-0.5zm1.5 2h0.5c0.277 0 0.5 0.223 0.5 0.5s-0.2233 0.513-0.5 0.5h-0.5zm4 2v1h6v-1z" style="opacity:.2"/>
 <path d="m6 5v1h-0.5c-0.831 0-1.5 0.669-1.5 1.5s0.669 1.5 1.5 1.5h0.5v1h-1.9082c0.206 0.582 0.754 1 1.4082 1h0.5v1h1v-1h0.5c0.831 0 1.5-0.669 1.5-1.5s-0.669-1.5-1.5-1.5h-0.5v-1h1.9082c-0.206-0.582-0.754-1-1.408-1h-0.5v-1h-1zm-0.5 2h0.5v1h-0.5c-0.277 0-0.5-0.223-0.5-0.5s0.223-0.5 0.5-0.5zm1.5 2h0.5c0.277 0 0.5 0.223 0.5 0.5s-0.2233 0.513-0.5 0.5h-0.5zm4 2v1h6v-1z" style="fill:#ffffff"/>
 <circle cx="17" cy="17" r="6" style="fill:#bb46da"/>
 <path d="m14 14h0.5c3.0376 0 5.5 2.4624 5.5 5.5v0.5h-0.5c-0.273 0-0.5-0.225-0.5-0.5 0-2.485-2.015-4.5-4.5-4.5-0.273 0-0.5-0.225-0.5-0.5z" style="fill:#ffffff"/>
 <path d="m14 16h0.5c1.933 0 3.5 1.567 3.5 3.5v0.5h-0.5c-0.273 0-0.5-0.225-0.5-0.5 0-1.381-1.119-2.5-2.5-2.5-0.273 0-0.5-0.225-0.5-0.5z" style="fill:#ffffff"/>
 <path d="m15 18c0.5523 0 1 0.44772 1 1s-0.44772 1-1 1-1-0.44772-1-1 0.44772-1 1-1z" style="fill:#ffffff"/>
</svg>
